X: 35876
T: Sands Of Kuwait, The
R: waltz
M: 3/4
K: Dmajor
M:9/8
|:fed|A3-A3 Ada|f3-f3 e2d|G3-G3 GBd|A3-A2 f fed|
A3-A3 Ada|f3-f3 e2d|d3-d2 B def|e3-e2 f fed|
A3-A3 Ada|f3-f3 e2d|G3-G3 GBd|A3-A3 ABc|
d3-d2 B def|e3-e2 A fed|d9-|d6:|
|:fed|a3-a3 Ada|f3-f3 e2d|G3-G3 GBd|A3-A2 f fed|
a3-a3 Ada|f3-f3 e2d|d3-d2 B def|e3-e2 f fed|
a3-a3 Ada|f3-f3 e2d|G3-G3 GBd|A3-A3 ABc|
d3-d2 B def|e3-e2 A fed|d9-|d6:|

